public/assets/satellite_icon.svg

<svg width="76" height="76" viewBox="0 0 76 76" fill="none" xmlns="http://www.w3.org/2000/svg">
<path d="M45.3402 68.6645C46.4374 69.7478 46.2587 71.6476 44.8948 72.376C33.3593 78.5811 18.6621 76.8158 8.92196 67.0755C-0.815848 57.3376 -2.58341 42.6541 3.62392 31.1045C4.34997 29.7544 6.24975 29.5758 7.33533 30.6591L24.6746 47.9986L28.7409 43.9322C28.6388 43.5449 28.5043 43.1899 28.5043 42.7724C28.5043 41.8328 28.7829 40.9144 29.3049 40.1331C29.8269 39.3519 30.5689 38.743 31.437 38.3835C32.305 38.0239 33.2602 37.9298 34.1817 38.1132C35.1032 38.2965 35.9497 38.7489 36.6141 39.4133C37.2785 40.0777 37.7309 40.9242 37.9142 41.8457C38.0975 42.7672 38.0034 43.7224 37.6439 44.5905C37.2843 45.4585 36.6754 46.2005 35.8942 46.7225C35.1129 47.2445 34.1945 47.5231 33.2549 47.5231C32.8397 47.5231 32.4824 47.3909 32.0974 47.2865L28.0288 51.3552L45.3402 68.6645ZM75.9964 44.9854C76.0145 45.3091 75.9666 45.633 75.8555 45.9376C75.7445 46.2422 75.5726 46.521 75.3505 46.7571C75.1283 46.9932 74.8604 47.1816 74.5631 47.3109C74.2658 47.4402 73.9453 47.5076 73.6211 47.5092H68.8543C68.2517 47.5074 67.6723 47.2761 67.2341 46.8625C66.7959 46.4488 66.5317 45.8838 66.4952 45.2823C65.3818 26.0569 49.9423 10.4687 30.7311 9.42953C30.1277 9.39739 29.5597 9.13418 29.1451 8.69451C28.7305 8.25483 28.501 7.67243 28.5043 7.06811V2.37774C28.5056 2.05349 28.5729 1.73291 28.7022 1.43552C28.8314 1.13813 29.0198 0.870155 29.2559 0.647923C29.492 0.425691 29.7709 0.253853 30.0756 0.142875C30.3802 0.031897 30.7043 -0.0158968 31.028 0.00240463C55.2566 1.27822 74.7345 20.7565 75.9964 44.9854ZM61.7446 44.9413C61.7667 45.2694 61.7213 45.5985 61.6112 45.9084C61.5011 46.2182 61.3287 46.5022 61.1046 46.7429C60.8805 46.9835 60.6095 47.1756 60.3082 47.3074C60.007 47.4392 59.6819 47.5079 59.3531 47.5092H54.5723C53.9778 47.5048 53.4063 47.2785 52.9699 46.8748C52.5335 46.471 52.2637 45.9188 52.2132 45.3264C51.188 33.895 42.102 24.7068 30.701 23.7697C30.1045 23.7269 29.5463 23.4598 29.1388 23.0221C28.7312 22.5844 28.5045 22.0086 28.5043 21.4106V16.6437C28.5042 16.3146 28.572 15.989 28.7033 15.6872C28.8347 15.3854 29.0269 15.114 29.2678 14.8898C29.5088 14.6656 29.7933 14.4934 30.1038 14.3841C30.4142 14.2748 30.7439 14.2307 31.0721 14.2544C47.4186 15.5163 60.4966 28.5946 61.7446 44.9413Z" fill="white"/>
</svg>

<svg xmlns="http://www.w3.org/2000/svg" fill="none" viewBox="0 0 76 76">
  <defs/>
  <path fill="#fff" d="M45.3402 68.6645c1.0972 1.0833.9185 2.9831-.4454 3.7115-11.5355 6.2051-26.2327 4.4398-35.97284-5.3005-9.737808-9.7379-11.50537-24.4214-5.29804-35.971.72605-1.3501 2.62583-1.5287 3.71141-.4454L24.6746 47.9986l4.0663-4.0664c-.1021-.3873-.2366-.7423-.2366-1.1598 0-.9396.2786-1.858.8006-2.6393.522-.7812 1.264-1.3901 2.1321-1.7496.868-.3596 1.8232-.4537 2.7447-.2703.9215.1833 1.768.6357 2.4324 1.3001.6644.6644 1.1168 1.5109 1.3001 2.4324.1833.9215.0892 1.8767-.2703 2.7448-.3596.868-.9685 1.61-1.7497 2.132-.7813.522-1.6997.8006-2.6393.8006-.4152 0-.7725-.1322-1.1575-.2366l-4.0686 4.0687 17.3114 17.3093zm30.6562-23.6791c.0181.3237-.0298.6476-.1409.9522-.111.3046-.2829.5834-.505.8195-.2222.2361-.4901.4245-.7874.5538-.2973.1293-.6178.1967-.942.1983h-4.7668c-.6026-.0018-1.182-.2331-1.6202-.6467-.4382-.4137-.7024-.9787-.7389-1.5802-1.1134-19.2254-16.5529-34.8136-35.7641-35.85277-.6034-.03214-1.1714-.29535-1.586-.73502-.4146-.43968-.6441-1.02208-.6408-1.6264V2.37774c.0013-.32425.0686-.64483.1979-.94222.1292-.29739.3176-.565365.5537-.787597.2361-.222232.515-.39407.8197-.505048.3046-.110978.6287-.1587718.9524-.14047037C55.2566 1.27822 74.7345 20.7565 75.9964 44.9854zm-14.2518-.0441c.0221.3281-.0233.6572-.1334.9671-.1101.3098-.2825.5938-.5066.8345-.2241.2406-.4951.4327-.7964.5645-.3012.1318-.6263.2005-.9551.2018h-4.7808c-.5945-.0044-1.166-.2307-1.6024-.6344-.4364-.4038-.7062-.956-.7567-1.5484C51.188 33.895 42.102 24.7068 30.701 23.7697c-.5965-.0428-1.1547-.3099-1.5622-.7476-.4076-.4377-.6343-1.0135-.6345-1.6115v-4.7669c-.0001-.3291.0677-.6547.199-.9565.1314-.3018.3236-.5732.5645-.7974.241-.2242.5255-.3964.836-.5057.3104-.1093.6401-.1534.9683-.1297 16.3465 1.2619 29.4245 14.3402 30.6725 30.6869z"/>
</svg>
